assets/images/svg/svg-menu-documentation.svg

<svg width="30" height="30" viewBox="0 0 30 30" fill="none" xmlns="http://www.w3.org/2000/svg">
<path d="M10.625 15.625L19.375 15.625" stroke="white" stroke-linecap="round"/>
<path d="M10.625 19.375L15.625 19.375" stroke="white" stroke-linecap="round"/>
<path d="M6.875 6.775C6.875 5.93492 6.875 5.51488 7.03849 5.19401C7.1823 4.91177 7.41177 4.6823 7.69401 4.53849C8.01488 4.375 8.43492 4.375 9.275 4.375H15.8809C16.2478 4.375 16.4312 4.375 16.6038 4.41645C16.7569 4.45319 16.9032 4.5138 17.0374 4.59604C17.1888 4.6888 17.3185 4.81852 17.5779 5.07794L22.4221 9.92206C22.6815 10.1815 22.8112 10.3112 22.904 10.4626C22.9862 10.5968 23.0468 10.7431 23.0836 10.8962C23.125 11.0688 23.125 11.2522 23.125 11.6191V23.225C23.125 24.0651 23.125 24.4851 22.9615 24.806C22.8177 25.0882 22.5882 25.3177 22.306 25.4615C21.9851 25.625 21.5651 25.625 20.725 25.625H9.275C8.43492 25.625 8.01488 25.625 7.69401 25.4615C7.41177 25.3177 7.1823 25.0882 7.03849 24.806C6.875 24.4851 6.875 24.0651 6.875 23.225V6.775Z" stroke="white"/>
<path d="M15.625 4.375V9.475C15.625 10.3151 15.625 10.7351 15.7885 11.056C15.9323 11.3382 16.1618 11.5677 16.444 11.7115C16.7649 11.875 17.1849 11.875 18.025 11.875H23.125" stroke="white"/>
</svg>

<svg width="30" height="30" fill="none" xmlns="http://www.w3.org/2000/svg">
  <path d="M10.625 15.625h8.75M10.625 19.375h5" stroke="#fff" stroke-linecap="round"/>
  <path d="M6.875 6.775c0-.84 0-1.26.163-1.581a1.5 1.5 0 0 1 .656-.656c.32-.163.74-.163 1.581-.163h6.606c.367 0 .55 0 .723.041.153.037.3.098.433.18.152.093.282.223.54.482l4.845 4.844c.26.26.39.39.482.54.082.135.143.281.18.434.041.173.041.356.041.723v11.606c0 .84 0 1.26-.163 1.581a1.5 1.5 0 0 1-.656.655c-.32.164-.74.164-1.581.164H9.275c-.84 0-1.26 0-1.581-.163a1.5 1.5 0 0 1-.656-.656c-.163-.32-.163-.74-.163-1.581V6.775Z" stroke="#fff"/>
  <path d="M15.625 4.375v5.1c0 .84 0 1.26.164 1.581a1.5 1.5 0 0 0 .655.655c.32.164.74.164 1.581.164h5.1" stroke="#fff"/>
</svg>
